X:14
T:ऋतम् / Ṛtam / ルタム（森羅万象の理）
M:3/4
L:1/8
Q:1/4=153
K:G
|: G,2 B,D GB | D2 FA dF | E2 GB eG | C2 EG cE :|
| gd BGD B, | fd AFDA, | eB GE B,G, | ec GEC G, |
